X: 931
T: The Fisherman's Widow.
B:O'Neill's 931
N:"collected by P. Mahony."
Z:Transcribed by Tom Keays (htkeays@mailbox.syr.edu)
Z:abc 1.6
M:6/8
R:Jig
L:1/8
K:D
F2 G AFA | dcA AGF | G3 ABc | ded cAG | F2 G AFA | dcA AGF |
| GFG ABG | AFD D3 :| d2 e f2 d | dcA ABc | d2 e f2 a | afd dcA |
|1 d2 e f2 d | ecA AGF | GFG ABG | AFD D3 :|2 afa geg |
FED cAF | G2 A BAG | AFD D3 |]


